docs/.gitbook/assets/icon-thumbs-up-16@light.svg

<svg width="32" height="32" viewBox="0 0 16 16" fill="none" xmlns="http://www.w3.org/2000/svg">
<rect x="0" y="0" width="16" height="16" fill="#fff"/>
<path fill-rule="evenodd" clip-rule="evenodd" d="M7.04751 1.00631C6.27731 0.927056 5.73645 1.55425 5.70459 2.19037C5.67433 2.79446 5.57823 3.8697 5.28193 4.92676C5.15828 5.36787 5.00669 5.78058 4.82482 6.14601C4.51176 5.45023 3.81245 4.96579 3 4.96579C1.89543 4.96579 1 5.86122 1 6.96579V11.9658C1 13.0704 1.89543 13.9658 3 13.9658C3.59985 13.9658 4.13801 13.7017 4.50459 13.2835C4.5599 13.3229 4.61754 13.3604 4.67753 13.3956C6.17112 14.2733 9.5673 15.8079 13.3996 14.4109C14.4477 14.0289 15 13.0045 15 12.0057V11.9969V11.9881V11.9793V11.9704V11.9616V11.9528V11.9439V11.9351V11.9262V11.9174V11.9085V11.8996V11.8908V11.8819V11.873V11.8642V11.8553V11.8464V11.8375V11.8286V11.8198V11.8109V11.802V11.7931V11.7842V11.7753V11.7664V11.7574V11.7485V11.7396V11.7307V11.7218V11.7129V11.7039V11.695V11.6861V11.6771V11.6682V11.6592V11.6503V11.6413V11.6324V11.6234V11.6145V11.6055V11.5966V11.5876V11.5786V11.5697V11.5607V11.5517V11.5427V11.5338V11.5248V11.5158V11.5068V11.4978V11.4888V11.4798V11.4708V11.4618V11.4528V11.4438V11.4348V11.4258V11.4168V11.4078V11.3988V11.3898V11.3808V11.3717V11.3627V11.3537V11.3447V11.3356V11.3266V11.3176V11.3085V11.2995V11.2905V11.2814V11.2724V11.2633V11.2543V11.2452V11.2362V11.2271V11.2181V11.209V11.2V11.1909V11.1818V11.1728V11.1637V11.1546V11.1456V11.1365V11.1274V11.1184V11.1093V11.1002V11.0911V11.082V11.073V11.0639V11.0548V11.0457V11.0366V11.0275V11.0184V11.0094V11.0003V10.9912V10.9821V10.973V10.9639V10.9548V10.9457V10.9366V10.9275V10.9184V10.9093V10.9002V10.8911V10.8819V10.8728V10.8637V10.8546V10.8455V10.8364V10.8273V10.8182V10.809V10.7999V10.7908V10.7817V10.7726V10.7634V10.7543V10.7452V10.7361V10.727V10.7178V10.7087V10.6996V10.6905V10.6813V10.6722V10.6631V10.6539V10.6448V10.6357V10.6265V10.6174V10.6083V10.5992V10.59V10.5809V10.5718V10.5626V10.5535V10.5444V10.5352V10.5261V10.5169V10.5078V10.4987V10.4895V10.4804V10.4713V10.4621V10.453V10.4438V10.4347V10.4256V10.4164V10.4073V10.3982V10.389V10.3799V10.3707V10.3616V10.3525V10.3433V10.3342V10.3251V10.3159V10.3068V10.2976V10.2885V10.2794V10.2702V10.2611V10.252V10.2428V10.2337V10.2246V10.2154V10.2063V10.1971V10.188V10.1789V10.1697V10.1606V10.1515V10.1424V10.1332V10.1241V10.115V10.1058V10.0967V10.0876V10.0784V10.0693V10.0602V10.0511V10.0419V10.0328V10.0237V10.0146V10.0055V9.99633V9.98721V9.97809V9.96897V9.95986V9.95074V9.94162V9.93251V9.9234V9.91428V9.90517V9.89606V9.88695V9.87784V9.86873V9.85963V9.85052V9.84142V9.83232V9.82321V9.81411V9.80502V9.79592V9.78682V9.77773V9.76863V9.75954V9.75045V9.74136V9.73227V9.72318V9.7141V9.70501V9.69593V9.68685V9.67777V9.66869V9.65961V9.65054V9.64146V9.63239V9.62332V9.61425V9.60518V9.59612V9.58705V9.57799V9.56893V9.55987V9.55082V9.54176V9.53271V9.52366V9.51461V9.50556V9.49651V9.48747V9.47843V9.46939V9.46035V9.45131V9.44228V9.43325V9.42422V9.41519V9.40617V9.39714V9.38812V9.3791V9.37008V9.36107V9.35206V9.34305V9.33404V9.32503V9.31603V9.30703V9.29803V9.28903V9.28004V9.27104V9.26205V9.25307V9.24408V9.2351V9.22612V9.21714V9.20817V9.1992V9.19023V9.18126V9.1723V9.16333V9.15438V9.14542V9.13647V9.12751V9.11857V9.10962V9.10068V9.09174V9.0828V9.07387V9.06493V9.05601V9.04708V9.03816V9.02924V9.02032V9.01141V9.0025V8.99359V8.98468V8.97578V8.96688V8.95799V8.94909V8.9402V8.93132V8.92243V8.91355V8.90468V8.8958V8.88693V8.87806V8.8692V8.86034V8.85148V8.84263V8.83378V8.82493V8.81609V8.80725V8.79841V8.78957V8.78074V8.77192V8.76309V8.75427V8.74546V8.73665V8.72784V8.71903V8.71023V8.70143V8.69264V8.68385V8.67506V8.66628V8.6575V8.64872V8.63995V8.63118V8.62242V8.61366V8.6049V8.59615V8.5874V8.57865V8.56991V8.56118V8.55244V8.54371V8.53499V8.52627V8.51755V8.50884V8.50013V8.49143V8.48272V8.47403V8.46534V8.45665V8.44796V8.43928V8.43061V8.42194V8.41327V8.40461V8.39595V8.3873V8.37865V8.37V8.36136V8.35273V8.3441V8.33547V8.32685V8.31823V8.30962V8.30101V8.2924V8.2838V8.27521V8.26662V8.25803V8.24945V8.24087V8.2323V8.22373V8.21517V8.20661V8.19806V8.18951V8.18097V8.17243V8.1639V8.15537V8.14685V8.13833V8.12982V8.12131V8.1128V8.1043V8.09581V8.08732V8.07884V8.07036V8.06189V8.05342V8.04495V8.0365V8.02804V8.0196V8.01115V8.00272V7.99428V7.98586V7.97744V7.96902V7.96061V7.95221V7.94381V7.93541V7.92702V7.91864V7.91026V7.90189V7.89352V7.88516V7.8768V7.86845V7.86011V7.85177V7.84343V7.83511V7.82678V7.81847V7.81016V7.80185V7.79355V7.78526V7.77697V7.76869V7.76041V7.75214V7.74387V7.73562V7.72736V7.71911V7.71087V7.70264V7.69441V7.68619V7.67797V7.66976V7.66155V7.65335V7.64516V7.63697V7.62879V7.62062V7.61245V7.60429V7.59613V7.58798V7.57984V7.5717V7.56357V7.55544V7.54733V7.53921V7.53111V7.52301V7.51492V7.50683V7.49875V7.49068V7.48261V7.47455V7.46649C15 6.10815 13.9847 4.87075 12.5388 4.80607C11.6807 4.76768 11.0451 4.80521 10.5844 4.85628C10.6377 3.84866 10.3605 2.99782 9.8073 2.34137C9.11132 1.51553 8.07423 1.11196 7.04751 1.00631ZM3.5 8.005C3.49981 8.91005 3.49985 10.3127 3.49992 11.2473C3.49992 11.2543 3.49994 11.2614 3.5 11.2684V11.9658C3.5 12.2419 3.27614 12.4658 3 12.4658C2.72386 12.4658 2.5 12.2419 2.5 11.9658V6.96579C2.5 6.68964 2.72386 6.46579 3 6.46579C3.27614 6.46579 3.5 6.68964 3.5 6.96579V8.005ZM5 11.2619C5.00438 11.6467 5.17915 11.9506 5.43747 12.1024C6.79341 12.8992 9.68531 14.1683 12.8859 13.0016C13.2358 12.874 13.5 12.4949 13.5 12.0057V11.9969V11.9881V11.9793V11.9704V11.9616V11.9528V11.9439V11.9351V11.9262V11.9174V11.9085V11.8996V11.8908V11.8819V11.873V11.8642V11.8553V11.8464V11.8375V11.8286V11.8198V11.8109V11.802V11.7931V11.7842V11.7753V11.7664V11.7574V11.7485V11.7396V11.7307V11.7218V11.7129V11.7039V11.695V11.6861V11.6771V11.6682V11.6592V11.6503V11.6413V11.6324V11.6234V11.6145V11.6055V11.5966V11.5876V11.5786V11.5697V11.5607V11.5517V11.5427V11.5338V11.5248V11.5158V11.5068V11.4978V11.4888V11.4798V11.4708V11.4618V11.4528V11.4438V11.4348V11.4258V11.4168V11.4078V11.3988V11.3898V11.3808V11.3717V11.3627V11.3537V11.3447V11.3356V11.3266V11.3176V11.3085V11.2995V11.2905V11.2814V11.2724V11.2633V11.2543V11.2452V11.2362V11.2271V11.2181V11.209V11.2V11.1909V11.1818V11.1728V11.1637V11.1546V11.1456V11.1365V11.1274V11.1184V11.1093V11.1002V11.0911V11.082V11.073V11.0639V11.0548V11.0457V11.0366V11.0275V11.0184V11.0094V11.0003V10.9912V10.9821V10.973V10.9639V10.9548V10.9457V10.9366V10.9275V10.9184V10.9093V10.9002V10.8911V10.8819V10.8728V10.8637V10.8546V10.8455V10.8364V10.8273V10.8182V10.809V10.7999V10.7908V10.7817V10.7726V10.7634V10.7543V10.7452V10.7361V10.727V10.7178V10.7087V10.6996V10.6905V10.6813V10.6722V10.6631V10.6539V10.6448V10.6357V10.6265V10.6174V10.6083V10.5992V10.59V10.5809V10.5718V10.5626V10.5535V10.5444V10.5352V10.5261V10.5169V10.5078V10.4987V10.4895V10.4804V10.4713V10.4621V10.453V10.4438V10.4347V10.4256V10.4164V10.4073V10.3982V10.389V10.3799V10.3707V10.3616V10.3525V10.3433V10.3342V10.3251V10.3159V10.3068V10.2976V10.2885V10.2794V10.2702V10.2611V10.252V10.2428V10.2337V10.2246V10.2154V10.2063V10.1971V10.188V10.1789V10.1697V10.1606V10.1515V10.1424V10.1332V10.1241V10.115V10.1058V10.0967V10.0876V10.0784V10.0693V10.0602V10.0511V10.0419V10.0328V10.0237V10.0146V10.0055V9.99633V9.98721V9.97809V9.96897V9.95986V9.95074V9.94162V9.93251V9.9234V9.91428V9.90517V9.89606V9.88695V9.87784V9.86873V9.85963V9.85052V9.84142V9.83232V9.82321V9.81411V9.80502V9.79592V9.78682V9.77773V9.76863V9.75954V9.75045V9.74136V9.73227V9.72318V9.7141V9.70501V9.69593V9.68685V9.67777V9.66869V9.65961V9.65054V9.64146V9.63239V9.62332V9.61425V9.60518V9.59612V9.58705V9.57799V9.56893V9.55987V9.55082V9.54176V9.53271V9.52366V9.51461V9.50556V9.49651V9.48747V9.47843V9.46939V9.46035V9.45131V9.44228V9.43325V9.42422V9.41519V9.40617V9.39714V9.38812V9.3791V9.37008V9.36107V9.35206V9.34305V9.33404V9.32503V9.31603V9.30703V9.29803V9.28903V9.28004V9.27104V9.26205V9.25307V9.24408V9.2351V9.22612V9.21714V9.20817V9.1992V9.19023V9.18126V9.1723V9.16333V9.15438V9.14542V9.13647V9.12751V9.11857V9.10962V9.10068V9.09174V9.0828V9.07387V9.06493V9.05601V9.04708V9.03816V9.02924V9.02032V9.01141V9.0025V8.99359V8.98468V8.97578V8.96688V8.95799V8.94909V8.9402V8.93132V8.92243V8.91355V8.90468V8.8958V8.88693V8.87806V8.8692V8.86034V8.85148V8.84263V8.83378V8.82493V8.81609V8.80725V8.79841V8.78957V8.78074V8.77192V8.76309V8.75427V8.74546V8.73665V8.72784V8.71903V8.71023V8.70143V8.69264V8.68385V8.67506V8.66628V8.6575V8.64872V8.63995V8.63118V8.62242V8.61366V8.6049V8.59615V8.5874V8.57865V8.56991V8.56118V8.55244V8.54371V8.53499V8.52627V8.51755V8.50884V8.50013V8.49143V8.48272V8.47403V8.46534V8.45665V8.44796V8.43928V8.43061V8.42194V8.41327V8.40461V8.39595V8.3873V8.37865V8.37V8.36136V8.35273V8.3441V8.33547V8.32685V8.31823V8.30962V8.30101V8.2924V8.2838V8.27521V8.26662V8.25803V8.24945V8.24087V8.2323V8.22373V8.21517V8.20661V8.19806V8.18951V8.18097V8.17243V8.1639V8.15537V8.14685V8.13833V8.12982V8.12131V8.1128V8.1043V8.09581V8.08732V8.07884V8.07036V8.06189V8.05342V8.04495V8.0365V8.02804V8.0196V8.01115V8.00272V7.99428V7.98586V7.97744V7.96902V7.96061V7.95221V7.94381V7.93541V7.92702V7.91864V7.91026V7.90189V7.89352V7.88516V7.8768V7.86845V7.86011V7.85177V7.84343V7.83511V7.82678V7.81847V7.81016V7.80185V7.79355V7.78526V7.77697V7.76869V7.76041V7.75214V7.74387V7.73562V7.72736V7.71911V7.71087V7.70264V7.69441V7.68619V7.67797V7.66976V7.66155V7.65335V7.64516V7.63697V7.62879V7.62062V7.61245V7.60429V7.59613V7.58798V7.57984V7.5717V7.56357V7.55544V7.54733V7.53921V7.53111V7.52301V7.51492V7.50683V7.49875V7.49068V7.48261V7.47455V7.46649C13.5 6.82002 13.0287 6.32948 12.4718 6.30457C11.3891 6.25614 10.7265 6.34162 10.3468 6.40165C10.3238 6.40529 10.2545 6.41665 10.1925 6.42681L10.0841 6.44451C10.018 6.45488 9.91222 6.47106 9.80927 6.47182L9.80501 6.47187C9.74232 6.47257 9.40611 6.47637 9.1591 6.19285C8.88816 5.88186 8.97156 5.5219 8.98691 5.45564L8.98727 5.45408C9.23343 4.38999 9.01141 3.72462 8.6603 3.308C8.3364 2.92367 7.82185 2.65524 7.18645 2.53979C7.13962 3.22588 7.02243 4.27504 6.72625 5.33162C6.42869 6.39319 5.9167 7.58647 5 8.37366V11.2619Z" fill="#000"/>
</svg>

<svg xmlns="http://www.w3.org/2000/svg" width="32" height="32" fill="none" viewBox="0 0 16 16"><path fill="#fff" d="M0 0h16v16H0z"/><path fill="#000" fill-rule="evenodd" d="M7.048 1.006c-.77-.079-1.312.548-1.343 1.184-.03.604-.127 1.68-.423 2.737a7 7 0 0 1-.457 1.219A2 2 0 0 0 1 6.966v5a2 2 0 0 0 3.505 1.318q.083.058.173.112c1.493.877 4.89 2.412 8.722 1.015 1.048-.382 1.6-1.406 1.6-2.405v-4.54c0-1.358-1.015-2.595-2.461-2.66-.858-.038-1.494 0-1.955.05.054-1.007-.223-1.858-.777-2.515-.696-.825-1.733-1.229-2.76-1.335M3.5 8.005v3.961a.5.5 0 0 1-1 0v-5a.5.5 0 1 1 1 0zM5 11.262c.004.385.18.689.437.84 1.356.797 4.248 2.066 7.449.9.35-.128.614-.507.614-.996v-4.54c0-.646-.471-1.137-1.028-1.161-1.083-.049-1.745.037-2.125.097l-.154.025-.109.018a2 2 0 0 1-.275.027h-.004c-.063 0-.399.004-.646-.28-.27-.31-.187-.67-.172-.736v-.002c.246-1.064.024-1.73-.327-2.146-.324-.384-.838-.653-1.474-.768a14 14 0 0 1-.46 2.792C6.43 6.393 5.916 7.586 5 8.374z" clip-rule="evenodd"/></svg>
